X: 4296
T: CORN FIELD
%R: reel
B: James Kerr "Merry Melodies" v.4 p.31 #296
Z: 2016 John Chambers <jc:trillian.mit.edu>
M: C|
L: 1/8
K: G
(dc) |\
B2BG A2AF | GABG D2B2 |\
[1,3 c2cd (ed)cB | A2A2A2 :|\
[2,4 cBAG FGAB | G2G2G2 |:\
(dc) |\
B2gf e2ed |
cdBc A2(dc) |\
B2(gf) edcB | A2A2 A2(dc) |\
Bdgf edcB | dcBc A2(AB) |\
cBAG FGAB | G2G2G2 :|

%%sep 1 1 500
%%sep 1 1 500

